X: 215
T: 216. Es ist genug! so nimm Herr
N: Derived from chor216.krn
C: Johann Sebastian Bach
%%abc-version 2.0
%%abcx-abcm2ps-target-version 5.9.1 (29 Sep 2008)
%%abc-creator hum2abc beta
%%abcx-conversion-date 2019/03/11 17:28:18
%%abc-edited-by Craig Stuart Sapp
%%humdrum-veritas 2931960576
%%humdrum-veritas-data 3759604312
%%
%%barnumbers 0
L: 1/4
M: C
%%staves [1 2 3 4]
V: 1 clef=treble
V: 2 clef=treble
V: 3 clef=treble-8
V: 4 clef=bass
K: A
[V:1] A2Bc | 
[V:2] E2ED/C/ | 
[V:3] c2Bf | 
[V:4] A,2G,^A, | 
[V:1] !fermata!^d2zd | 
[V:2] !fermata!G2xG | 
[V:3] !fermata!f2x^B | 
[V:4] !fermata!^B,2zG, | 
[V:1] eBB=d | 
[V:2] G3/A/ G/F/ G/E/ | 
[V:3] c/^d/eee | 
[V:4] C/=B,//A,// G,/F,/ E,/D,/ C,/B,,/ | 
[V:1] !fermata!c3B | 
[V:2] !fermata!A3G | 
[V:3] !fermata!e3e | 
[V:4] !fermata!A,,3E, | 
[V:1] c/^d/eed | 
[V:2] A/B/cB=A//^G//A/ | 
[V:3] e/f/=gfB | 
[V:4] A,^A,B,B,, | 
[V:1] !fermata!e2A2 | 
[V:2] !fermata!G2E2 | 
[V:3] !fermata!B2c2 | 
[V:4] !fermata!E,2A,2 | 
[V:1] Bc!fermata!^d2 | 
[V:2] EE!fermata!F2 | 
[V:3] BA!fermata!A2 | 
[V:4] G,=G,!fermata!F,2 | 
[V:1] z^deB | 
[V:2] xF/G//A// G/F/ G/A/ | 
[V:3] xBBe | 
[V:4] zB,,E,3/F,/ | 
[V:1] B=d!fermata!c2 | 
[V:2] BG!fermata!A2 | 
[V:3] ee!fermata!e2 | 
[V:4] G,F,/E,/!fermata!A,2 | 
[V:1] zBc/^d/e | 
[V:2] xF=G/A/B | 
[V:3] x^de/f/=g | 
[V:4] zA,=G,/F,/E, | 
[V:1] e^d!fermata!e2 | 
[V:2] B/A//^G// A/F/!fermata!G2 | 
[V:3] fB!fermata!B2 | 
[V:4] B,B,,!fermata!E,2 | 
[V:1] zBBB | 
[V:2] xG/A/ B/A/ B/G/ | 
[V:3] xeee | 
[V:4] zE,/F,/ G,/F,/ G,/E,/ | 
[V:1] cBdc | 
[V:2] ABAA | 
[V:3] eefe | 
[V:4] A,/B,/ A,/G,/ F,/G,/A, | 
[V:1] c2!fermata!B2 | 
[V:2] A/G/A/F/!fermata!G2 | 
[V:3] e^d!fermata!e2 | 
[V:4] E,2!fermata!E,2 | 
[V:1] zBBB | 
[V:2] xFB,B | 
[V:3] x^de=f | 
[V:4] zA,G,=G, | 
[V:1] cBdc | 
[V:2] ^A=AGA | 
[V:3] e=def | 
[V:4] F,=F,E,^D, | 
[V:1] c2!fermata!B2 | 
[V:2] A/F/^D!fermata!E2 | 
[V:3] e/A/F!fermata!G2 | 
[V:4] E,2!fermata!E,2 | 
[V:1] zecB | 
[V:2] xEEF/G/ | 
[V:3] xBAA/G/ | 
[V:4] zG,A,/C,/ ^D,/^E,/ | 
[V:1] !fermata!A2ze | 
[V:2] !fermata!F2xB | 
[V:3] !fermata!c2xe | 
[V:4] !fermata!F,2zG, | 
[V:1] cB!fermata!A2 |]  
[V:2] AG!fermata!E2 |]  
[V:3] ed//c//d/!fermata!c2 |]  
[V:4] A,E,!fermata!A,,2 |]  



